dist/assets/images/Github_Color.svg

<?xml version="1.0" encoding="UTF-8"?>
<svg width="25px" height="25px" viewBox="0 0 25 25" version="1.1" xmlns="http://www.w3.org/2000/svg" xmlns:xlink="http://www.w3.org/1999/xlink">
    <!-- Generator: Sketch 47.1 (45422) - http://www.bohemiancoding.com/sketch -->
    <title>Github_Color</title>
    <desc>Created with Sketch.</desc>
    <defs></defs>
    <g id="Landos-" stroke="none" stroke-width="1" fill="none" fill-rule="evenodd">
        <g id="Landos-Copy-3" transform="translate(-1111.000000, -10018.000000)" fill="#161514">
            <g id="Github" transform="translate(1111.000000, 10018.000000)">
                <path d="M12.5001035,0 C5.59739184,0 0,5.73799352 0,12.8164652 C0,18.4791152 3.58166011,23.2832734 8.54833368,24.9779722 C9.17304906,25.0966118 9.40240116,24.699944 9.40240116,24.3614287 C9.40240116,24.0558099 9.39080936,23.0462066 9.38542745,21.9752672 C5.90788657,22.7505628 5.17408404,20.4630907 5.17408404,20.4630907 C4.60546471,18.9816884 3.78617264,18.5877796 3.78617264,18.5877796 C2.65203892,17.7923217 3.87166218,17.8086639 3.87166218,17.8086639 C5.12688884,17.8990761 5.78782861,19.1294041 5.78782861,19.1294041 C6.90271165,21.0887604 8.71206789,20.5223044 9.42537777,20.1948253 C9.53756986,19.366471 9.86151935,18.8010761 10.2190023,18.4810253 C7.44255848,18.156942 4.52390809,17.0579876 4.52390809,12.1470751 C4.52390809,10.7478077 5.01221279,9.60449618 5.8118402,8.70695311 C5.68205341,8.38414322 5.25419168,7.08059402 5.93293314,5.31522081 C5.93293314,5.31522081 6.9826123,4.97076292 9.37135169,6.6289573 C10.3684537,6.34498647 11.4377976,6.20257659 12.5001035,6.19769518 C13.5624094,6.20257659 14.6325812,6.34498647 15.6315463,6.6289573 C18.0173877,4.97076292 19.0656179,5.31522081 19.0656179,5.31522081 C19.7460153,7.08059402 19.3179466,8.38414322 19.1881598,8.70695311 C19.9896502,9.60449618 20.4746429,10.7478077 20.4746429,12.1470751 C20.4746429,17.0696606 17.5504036,18.1535462 14.766922,18.470838 C15.2152763,18.8685669 15.6147795,19.6485317 15.6147795,20.8442653 C15.6147795,22.5591265 15.6002898,23.9392927 15.6002898,24.3614287 C15.6002898,24.7024908 15.825295,25.1021299 16.4589112,24.9762744 C21.4228938,23.2796654 25,18.4772051 25,12.8164652 C25,5.73799352 19.4034361,0 12.5001035,0" id="Fill-4"></path>
                <path d="M4.83811032,18.3524333 C4.80513511,18.4268237 4.68811032,18.4491408 4.58149875,18.3980594 C4.47290371,18.3492097 4.41191197,18.2477908 4.44711858,18.1731524 C4.47934999,18.0965303 4.59662271,18.075205 4.70496982,18.1265344 C4.8138128,18.1753841 4.87579627,18.2777949 4.83811032,18.3524333" id="Fill-5"></path>
                <path d="M5.34225985,18.950306 C5.27085489,19.0165135 5.13126811,18.9857655 5.03655737,18.881123 C4.93862348,18.7767284 4.92027638,18.6371224 4.99267307,18.5699231 C5.06630943,18.5037156 5.20168134,18.5347116 5.29986315,18.6391062 C5.39779704,18.7447405 5.41688795,18.8833547 5.34225985,18.950306" id="Fill-6"></path>
                <path d="M5.83576479,19.659967 C5.74402926,19.7192144 5.59402926,19.6636555 5.50130198,19.5398584 C5.40956645,19.4160614 5.40956645,19.2675971 5.50328546,19.2081192 C5.59626066,19.1486412 5.74402926,19.2021253 5.8379962,19.3250002 C5.9294838,19.4508721 5.9294838,19.5993364 5.83576479,19.659967" id="Fill-7"></path>
                <path d="M6.47273685,20.3554205 C6.39952777,20.4378907 6.24359908,20.415748 6.12947255,20.303227 C6.01269191,20.1931914 5.98017912,20.0370628 6.05360937,19.9545926 C6.12770314,19.8718964 6.28451654,19.8951688 6.39952777,20.0067861 C6.51542371,20.1165957 6.55081178,20.273854 6.47273685,20.3554205" id="Fill-8"></path>
                <path d="M7.37231405,20.7838011 C7.34214876,20.90109 7.2018595,20.9544031 7.06053719,20.9045615 C6.91942149,20.8532322 6.82706612,20.7158579 6.85557851,20.5973291 C6.88491736,20.4792964 7.02582645,20.4237515 7.16818182,20.4770646 C7.30909091,20.5281461 7.40165289,20.6645285 7.37231405,20.7838011" id="Fill-9"></path>
                <path d="M8.39338843,20.8433201 C8.39690083,20.9668082 8.27706612,21.069219 8.12871901,21.0714507 C7.97954545,21.0754182 7.8588843,20.9754871 7.8572314,20.8539827 C7.8572314,20.7292548 7.97438017,20.6278359 8.12355372,20.6248603 C8.27190083,20.6213887 8.39338843,20.7205759 8.39338843,20.8433201" id="Fill-10"></path>
                <path d="M9.34359504,20.6715583 C9.36136364,20.7920708 9.25826446,20.9158069 9.11095041,20.9487866 C8.9661157,20.9805265 8.83202479,20.9061361 8.81363636,20.7866155 C8.79566116,20.6631274 8.90061983,20.5393914 9.04524793,20.5074035 C9.1927686,20.4766555 9.32479339,20.5490621 9.34359504,20.6715583" id="Fill-11"></path>
            </g>
        </g>
    </g>
</svg>

<svg width="25" height="25" viewBox="0 0 25 25" xmlns="http://www.w3.org/2000/svg"><title>Github_Color</title><g fill="#161514" fill-rule="evenodd"><path d="M12.5 0C5.597 0 0 5.738 0 12.816c0 5.663 3.582 10.467 8.548 12.162.625.119.854-.278.854-.617 0-.305-.011-1.315-.017-2.386-3.477.776-4.21-1.512-4.21-1.512-.57-1.481-1.389-1.875-1.389-1.875-1.134-.796.086-.78.086-.78 1.255.091 1.916 1.321 1.916 1.321 1.115 1.96 2.924 1.393 3.637 1.066.113-.829.437-1.394.794-1.714-2.776-.324-5.695-1.423-5.695-6.334 0-1.4.488-2.543 1.288-3.44-.13-.323-.558-1.626.12-3.392 0 0 1.05-.344 3.44 1.314a11.704 11.704 0 0 1 3.128-.431c1.062.005 2.133.147 3.132.431 2.385-1.658 3.434-1.314 3.434-1.314.68 1.766.252 3.07.122 3.392.802.897 1.287 2.04 1.287 3.44 0 4.923-2.925 6.007-5.708 6.324.448.398.848 1.178.848 2.373 0 1.715-.015 3.095-.015 3.517 0 .341.225.741.859.615C21.423 23.28 25 18.477 25 12.816 25 5.738 19.403 0 12.5 0"/><path d="M4.838 18.352c-.033.075-.15.097-.257.046-.108-.049-.17-.15-.134-.225.032-.076.15-.098.258-.046.109.048.17.15.133.225m.504.598c-.071.067-.21.036-.305-.069-.098-.104-.117-.244-.044-.311.073-.066.209-.035.307.07.098.105.117.243.042.31m.494.71c-.092.06-.242.004-.335-.12-.091-.124-.091-.272.002-.332s.241-.006.335.117c.091.126.091.274-.002.335m.637.695c-.073.083-.23.06-.344-.052-.116-.11-.149-.266-.075-.348.074-.083.23-.06.346.052.115.11.15.267.073.348m.899.429c-.03.117-.17.17-.311.12-.142-.05-.234-.188-.205-.307.029-.118.17-.173.312-.12.141.051.234.188.204.307m1.021.059c.004.124-.116.226-.264.228-.15.004-.27-.096-.272-.217 0-.125.117-.226.267-.23.148-.003.27.097.27.22m.95-.172c.017.12-.086.244-.233.277-.145.032-.279-.043-.297-.162-.018-.124.087-.248.231-.28.148-.03.28.042.299.165"/></g></svg>
